X:103
T:Knights of St. Patrick 2 (j)
B:NFID.100a
103kn_sp2
S:SD
N:NF contains two extra measures in the second part
which I have rearranged into a first and second ending.
L:1/8
M:6/8
R:jig
Q:320
K:D
A|dff f2f|dAG FED|GBG FAF|E=CE GFE|
DFA ABc|dfd cBA|f2a gec|dAF D2:|
^g|:aba fdf|aba agf|g2g ece|gag gfe|
def gfg|aba gfe|1 dfa gfe|aba gfe:|
[2 dfa gfe|fge d3|]

%%%

